src/client/web-contents/img/common/badge/badge_family_05.svg

<svg height="32" viewBox="0 0 64 32" width="64" xmlns="http://www.w3.org/2000/svg"><g fill="none" fill-rule="evenodd"><rect fill="#119ed7" height="32" rx="4" width="64"/><path d="m22.52 24.82h-1.96v-9.02h-1.72v8.18h-1.94v-16.62h1.94v6.72h1.72v-7.08h1.96zm-7.5-4.62h-7.02v-11.32h2.06v4.16h2.92v-4.2h2.04zm-2.04-1.64v-3.9h-2.92v3.9zm25.1-7.02c0 2.36-2.4 3.92-6.26 3.92-3.84 0-6.26-1.56-6.26-3.92 0-2.3 2.42-3.88 6.26-3.88 3.86 0 6.26 1.58 6.26 3.88zm-5.24 13.3h-2.04v-6.06h-7v-1.66h16.1v1.66h-7.06zm3.12-13.3c0-1.28-1.58-2.22-4.14-2.22s-4.14.94-4.14 2.22c0 1.3 1.58 2.22 4.14 2.22s4.14-.92 4.14-2.22zm14.98 7.6-1.18 1.48c-1.66-.92-3.82-3.2-4.38-5.04-.46 1.9-2.24 4.26-4.4 5.44l-1.28-1.52c2.84-1.58 4.62-4.46 4.62-8.04v-.94h-3.72v-1.66h9.46v1.66h-3.62v.94c0 3.62 1.9 6.24 4.5 7.68zm3-12.14v6.98h2.7v1.72h-2.7v9.12h-2.06v-17.82z" fill="#fff"/></g></svg>

<?xml version="1.0" encoding="UTF-8" standalone="no"?>
<svg width="64px" height="32px" viewBox="0 0 64 32" version="1.1" xmlns="http://www.w3.org/2000/svg" xmlns:xlink="http://www.w3.org/1999/xlink">
    <!-- Generator: Sketch 50.2 (55047) - http://www.bohemiancoding.com/sketch -->
    <title>graphic_badge_family_05</title>
    <desc>Created with Sketch.</desc>
    <defs></defs>
    <g id="Icon_Badge_Graphic" stroke="none" stroke-width="1" fill="none" fill-rule="evenodd">
        <g id="##Element/Badge/Family05">
            <rect id="Rectangle-2" fill="#119ED7" x="0" y="0" width="64" height="32" rx="4"></rect>
            <path d="M22.52,24.82 L20.56,24.82 L20.56,15.8 L18.84,15.8 L18.84,23.98 L16.9,23.98 L16.9,7.36 L18.84,7.36 L18.84,14.08 L20.56,14.08 L20.56,7 L22.52,7 L22.52,24.82 Z M15.02,20.2 L8,20.2 L8,8.88 L10.06,8.88 L10.06,13.04 L12.98,13.04 L12.98,8.84 L15.02,8.84 L15.02,20.2 Z M12.98,18.56 L12.98,14.66 L10.06,14.66 L10.06,18.56 L12.98,18.56 Z M38.08,11.54 C38.08,13.9 35.68,15.46 31.82,15.46 C27.98,15.46 25.56,13.9 25.56,11.54 C25.56,9.24 27.98,7.66 31.82,7.66 C35.68,7.66 38.08,9.24 38.08,11.54 Z M32.84,24.84 L30.8,24.84 L30.8,18.78 L23.8,18.78 L23.8,17.12 L39.9,17.12 L39.9,18.78 L32.84,18.78 L32.84,24.84 Z M35.96,11.54 C35.96,10.26 34.38,9.32 31.82,9.32 C29.26,9.32 27.68,10.26 27.68,11.54 C27.68,12.84 29.26,13.76 31.82,13.76 C34.38,13.76 35.96,12.84 35.96,11.54 Z M50.94,19.14 L49.76,20.62 C48.1,19.7 45.94,17.42 45.38,15.58 C44.92,17.48 43.14,19.84 40.98,21.02 L39.7,19.5 C42.54,17.92 44.32,15.04 44.32,11.46 L44.32,10.52 L40.6,10.52 L40.6,8.86 L50.06,8.86 L50.06,10.52 L46.44,10.52 L46.44,11.46 C46.44,15.08 48.34,17.7 50.94,19.14 Z M53.94,7 L53.94,13.98 L56.64,13.98 L56.64,15.7 L53.94,15.7 L53.94,24.82 L51.88,24.82 L51.88,7 L53.94,7 Z" id="배우자" fill="#FFFFFF"></path>
        </g>
    </g>
</svg>
